X: 3745
T: Bird's Nest, The
R: reel
M: 4/4
K: Adorian
cA A2 GABG|AGAB cded|cA A2 GABG|Aage d2ed|
cA A2 GABG|AG AB cded|cA A2 GABG|Aage d2cd||
eaag egdg|ecgc edcd|eaag edcd|eage d2cd|
eaag egdg|ecgc e2ab|afgf edcd|eage d2ed||

